X: 10671
T: Allegro
C:
Q: "Allegro"
B: "Man of Feeling", Gaetano Brandi, ed. v.1 p.67
F: http://archive.org/details/manoffeelingorge00rugg
Z: 2012 John Chambers <jc:trillian.mit.edu>
M: 2/4
L: 1/8
K: D
f |\
{f}eddd | {f}eddd | ee Tf>(e/f//) | g3 g |\
ff Ta>(g/a//) | bagf | fedc | d2z2 |
dd/d/ dA | FDFA | dfaf | eA/A/ AA |\
dd/d/ dA | FDFA | dfaf | dAFD | HA2 zf |
{f}eddd | {f}eddd | ee Tf>(e/f//) | g3 g |\
ff Ta>(g/a//) | bagf | fedc | d2 (d'c') |
bB ba | gG gf | edce | d2(d'c') |\
bB (ba) | gG (gf) | edce | d2 z |]
%
%%center -

%%sep 2 1 500
%%sep 1 1 500

